X: 36
T: HAMNAVOE POLKA
R: polka
B: Haand me doon da fiddle, 1979
Z: 2012 John Chambers <jc:trillian.mit.edu>
N: Missing beat at end of 1st part; fixed by lengthening the final G.
M: C
L: 1/8
K: G
|:\
{D}G2F2 TE2D2 | A>B c/B/A d>B G2 | {A}e2d2 c2B2 | A>B A>G F<A d2 |
{D}G2F2 TE2D2 | A>B c/B/A d>B G2 | eg3 dg3 | {F}G2F2 G4 :|
|:\
{f}g2f2 e>f g/f/e | d2B2 A>B c/B/A | G2G2 G>A B>A | G2A2 {G}F4 |
{f}g2f2 e>f g/f/e | d2B2 A>B c/B/A | G2G2 G>A B>A | G2F2 G4 :|
%%begintext align
Dis is wan o' da first t\"uns I learned fae me grandfaider.  He
never kent da name o't but I caa it "Da Hamnavoe Polka" cause
dat wis whaur he bedd.  I never heard it ony wye else ootside
o' Eshaness.
%%endtext

%%sep 2 1 500
%%sep 1 1 500

